icon/ir/home-hospital.svg

<svg stroke-width="1.5" viewBox="0 0 24 24" fill="none" xmlns="http://www.w3.org/2000/svg" height="1em" width="1em">
  <path d="M3 9.5L12 4L21 9.5" stroke="currentColor" stroke-linecap="round" stroke-linejoin="round"/>
  <path d="M19 13V19.4C19 19.7314 18.7314 20 18.4 20H5.6C5.26863 20 5 19.7314 5 19.4V13" stroke="currentColor" stroke-linecap="round" stroke-linejoin="round"/>
  <path d="M13.6667 17H10.3333V14.6667H8V11.3333H10.3333V9H13.6667V11.3333H16V14.6667H13.6667V17Z" stroke="currentColor" stroke-linecap="round" stroke-linejoin="round"/>
</svg>

<svg width="24" height="24" stroke-width="1.5" fill="none" xmlns="http://www.w3.org/2000/svg"><path d="M3 9.5 12 4l9 5.5M19 13v6.4a.6.6 0 0 1-.6.6H5.6a.6.6 0 0 1-.6-.6V13" stroke="currentColor" stroke-linecap="round" stroke-linejoin="round"/><path d="M13.667 17h-3.334v-2.333H8v-3.334h2.333V9h3.334v2.333H16v3.334h-2.333V17Z" stroke="currentColor" stroke-linecap="round" stroke-linejoin="round"/></svg>
